img/vector/movion_mobile.svg

<svg width="106" height="19" viewBox="0 0 106 19" fill="none" xmlns="http://www.w3.org/2000/svg">
<path d="M4.992 7.776L3.84 18H0.912L3.216 0.36L10.104 11.76L17.016 0.36L19.32 18H16.392L15.24 7.776L10.104 16.44L4.992 7.776ZM21.1151 9.6C21.1151 8.352 21.3311 7.2 21.7631 6.144C22.1951 5.072 22.8031 4.152 23.5871 3.384C24.3871 2.6 25.3151 1.992 26.3711 1.56C27.4271 1.128 28.5791 0.912 29.8271 0.912C31.0751 0.912 32.2271 1.128 33.2831 1.56C34.3551 1.992 35.2831 2.6 36.0671 3.384C36.8671 4.152 37.4831 5.072 37.9151 6.144C38.3471 7.2 38.5631 8.352 38.5631 9.6C38.5631 10.848 38.3471 12.008 37.9151 13.08C37.4831 14.136 36.8751 15.064 36.0911 15.864C35.3071 16.648 34.3791 17.264 33.3071 17.712C32.2511 18.144 31.0911 18.36 29.8271 18.36C28.5631 18.36 27.4031 18.144 26.3471 17.712C25.2911 17.264 24.3711 16.648 23.5871 15.864C22.8031 15.064 22.1951 14.136 21.7631 13.08C21.3311 12.008 21.1151 10.848 21.1151 9.6ZM24.1151 9.6C24.1151 10.752 24.3551 11.784 24.8351 12.696C25.3311 13.592 26.0111 14.296 26.8751 14.808C27.7391 15.32 28.7231 15.576 29.8271 15.576C30.9471 15.576 31.9311 15.32 32.7791 14.808C33.6431 14.296 34.3151 13.592 34.7951 12.696C35.2911 11.784 35.5391 10.752 35.5391 9.6C35.5391 8.448 35.2991 7.424 34.8191 6.528C34.3391 5.616 33.6671 4.904 32.8031 4.392C31.9551 3.88 30.9631 3.624 29.8271 3.624C28.7231 3.624 27.7391 3.88 26.8751 4.392C26.0111 4.904 25.3311 5.616 24.8351 6.528C24.3551 7.424 24.1151 8.448 24.1151 9.6ZM46.9988 13.008L51.9427 1.2H55.2068L46.9988 18.936L38.7908 1.2H42.0548L46.9988 13.008ZM57.1611 1.2H67.3851V3.696H59.9451V7.776H66.9051V10.224H59.9451V15.504H67.3851V18H57.1611V1.2ZM69.912 9.6C69.912 8.352 70.128 7.2 70.56 6.144C70.992 5.072 71.6 4.152 72.384 3.384C73.184 2.6 74.112 1.992 75.168 1.56C76.224 1.128 77.376 0.912 78.624 0.912C79.872 0.912 81.024 1.128 82.08 1.56C83.152 1.992 84.08 2.6 84.864 3.384C85.664 4.152 86.28 5.072 86.712 6.144C87.144 7.2 87.36 8.352 87.36 9.6C87.36 10.848 87.144 12.008 86.712 13.08C86.28 14.136 85.672 15.064 84.888 15.864C84.104 16.648 83.176 17.264 82.104 17.712C81.048 18.144 79.888 18.36 78.624 18.36C77.36 18.36 76.2 18.144 75.144 17.712C74.088 17.264 73.168 16.648 72.384 15.864C71.6 15.064 70.992 14.136 70.56 13.08C70.128 12.008 69.912 10.848 69.912 9.6ZM72.912 9.6C72.912 10.752 73.152 11.784 73.632 12.696C74.128 13.592 74.808 14.296 75.672 14.808C76.536 15.32 77.52 15.576 78.624 15.576C79.744 15.576 80.728 15.32 81.576 14.808C82.44 14.296 83.112 13.592 83.592 12.696C84.088 11.784 84.336 10.752 84.336 9.6C84.336 8.448 84.096 7.424 83.616 6.528C83.136 5.616 82.464 4.904 81.6 4.392C80.752 3.88 79.76 3.624 78.624 3.624C77.52 3.624 76.536 3.88 75.672 4.392C74.808 4.904 74.128 5.616 73.632 6.528C73.152 7.424 72.912 8.448 72.912 9.6ZM102.378 1.2H105.162V18.84L92.8982 6.72V18H90.1142V0.36L102.378 12.48V1.2Z" fill="white"/>
</svg>

<svg width="106" height="19" fill="none" xmlns="http://www.w3.org/2000/svg"><path d="M4.992 7.776 3.84 18H.912L3.216.36l6.888 11.4L17.016.36 19.32 18h-2.928L15.24 7.776l-5.136 8.664-5.112-8.664ZM21.115 9.6c0-1.248.216-2.4.648-3.456a7.994 7.994 0 0 1 1.824-2.76 8.575 8.575 0 0 1 2.784-1.824c1.056-.432 2.208-.648 3.456-.648 1.248 0 2.4.216 3.456.648 1.072.432 2 1.04 2.784 1.824a7.832 7.832 0 0 1 1.848 2.76c.432 1.056.648 2.208.648 3.456 0 1.248-.216 2.408-.648 3.48a8.575 8.575 0 0 1-1.824 2.784 8.555 8.555 0 0 1-2.784 1.848c-1.056.432-2.216.648-3.48.648-1.264 0-2.424-.216-3.48-.648a8.622 8.622 0 0 1-2.76-1.848 8.575 8.575 0 0 1-1.824-2.784c-.432-1.072-.648-2.232-.648-3.48Zm3 0c0 1.152.24 2.184.72 3.096a5.507 5.507 0 0 0 2.04 2.112c.864.512 1.848.768 2.952.768 1.12 0 2.104-.256 2.952-.768a5.336 5.336 0 0 0 2.016-2.112c.496-.912.744-1.944.744-3.096 0-1.152-.24-2.176-.72-3.072a5.296 5.296 0 0 0-2.016-2.136c-.848-.512-1.84-.768-2.976-.768-1.104 0-2.088.256-2.952.768a5.463 5.463 0 0 0-2.04 2.136c-.48.896-.72 1.92-.72 3.072ZM47 13.008 51.943 1.2h3.264l-8.208 17.736L38.79 1.2h3.264l4.944 11.808ZM57.16 1.2h10.224v2.496h-7.44v4.08h6.96v2.448h-6.96v5.28h7.44V18H57.161V1.2Zm12.751 8.4c0-1.248.216-2.4.648-3.456a7.994 7.994 0 0 1 1.824-2.76 8.575 8.575 0 0 1 2.784-1.824c1.056-.432 2.208-.648 3.456-.648 1.248 0 2.4.216 3.456.648 1.072.432 2 1.04 2.784 1.824a7.832 7.832 0 0 1 1.848 2.76c.432 1.056.648 2.208.648 3.456 0 1.248-.216 2.408-.648 3.48a8.575 8.575 0 0 1-1.824 2.784 8.555 8.555 0 0 1-2.784 1.848c-1.056.432-2.216.648-3.48.648-1.264 0-2.424-.216-3.48-.648a8.622 8.622 0 0 1-2.76-1.848 8.575 8.575 0 0 1-1.824-2.784c-.432-1.072-.648-2.232-.648-3.48Zm3 0c0 1.152.24 2.184.72 3.096a5.507 5.507 0 0 0 2.04 2.112c.864.512 1.848.768 2.952.768 1.12 0 2.104-.256 2.952-.768a5.336 5.336 0 0 0 2.016-2.112c.496-.912.744-1.944.744-3.096 0-1.152-.24-2.176-.72-3.072A5.296 5.296 0 0 0 81.6 4.392c-.848-.512-1.84-.768-2.976-.768-1.104 0-2.088.256-2.952.768a5.463 5.463 0 0 0-2.04 2.136c-.48.896-.72 1.92-.72 3.072Zm29.466-8.4h2.784v17.64L92.898 6.72V18h-2.784V.36l12.264 12.12V1.2Z" fill="#fff"/></svg>
